X:1
T:Title
%%score { ( 1 4 ) | ( 2 3 ) }
L:1/8
Q:1/4=120
M:6/4
K:F
V:1 treble nm="Grand Piano"
V:4 treble 
V:2 bass 
V:3 bass 
V:1
 A2 _A2 =A2 c4 F2 | F2 E2 D2 E6 | C2 B2 B2 B4 B2 | B6 .A6 | A2 _A2 =A2 c4 A2 | FF G2 A2 [DB]6 | %6
w: James~M.~Black * * * *||||||
 [Fd]2 [Fd]2 [Fd]2 [Fc]4 [CFA]2 | .[B,EG]6 .[F,A,CF]6 | [Fc]6 z6 | [Fd]6 z6 | d2 c2 A2 G4 de | %11
w: |||||
 [Ed]6 [Ec]4 B,2 | c2 d2 c2 A4 G2 | FF G2 A2 [DB]6 | [Fd]2 [Fd]2 [Fd]2 [Fc]4 [FA]2 | %15
w: ||||
 [EG]6 .[A,CF]6 |] %16
w: |
V:2
 [F,CF]2 [F,=B,F]2 [F,CF]2 [F,A,F]4 [F,A,C]2 | [G,B,C]2 [G,B,C]2 [G,B,C]2 [G,B,C]6 | %2
 [C,B,]2 [C,G,C]2 [C,G,C]2 [C,G,C]4 [E,G,C]2 | [F,DF]6 .[F,CF]6 | %4
 [F,CF]2 [F,=B,F]2 [F,CF]2 [F,A,F]4 [F,CF]2 | .[F,A,C]2 [F,B,E]2 [F,_E]2 [B,,F,]6 | %6
 [B,,B,]2 [B,,B,]2 [B,,B,]2 [C,A,]4 C,2 | z4 C2 .F,,6 | [F,A,]2 F,2 F,2[K:treble] [CF]4 [A,F]2 | %9
 [B,,B,]2 B,,2 B,,2 .[B,,B,]6 | [F,A,F]2[K:treble] [F,A,F]2 [F,CF]2 [G,=B,F]4 FG | %11
 [C,G,]6 .[C,G,]6 | [F,A,F]2 [F,B,F]2 [F,A,F]2 [F,CF]4 [F,B,C]2 | %13
 .[F,A,C]2 [F,B,E]2 [F,_E]2 [B,,F,]6 | [B,,B,]2 [B,,B,]2 [B,,B,]2 [C,A,]4 [C,C]2 | %15
 [C,B,]6 .[F,,F,]6 |] %16
V:3
 x12 | x12 | x12 | x12 | x12 | x12 | x12 | C,6 z6 | z6[K:treble] F,6 | x12 | z6[K:treble] z4 G,2 | %11
 x12 | x12 | x12 | x12 | x12 |] %16
V:4
 x12 | x12 | x12 | x12 | x12 | x12 | x12 | x12 | z2 A,2 A,2 A4 c2 | z2 B,2 B,2 .[Fd]6 | x12 | x12 | %12
 x12 | x12 | x12 | x12 |] %16

